Sources/FrostedUI/Resources/Icons.xcassets/compress20.imageset/compress-20.svg

<svg width="20" height="20" viewBox="0 0 20 20" fill="none" xmlns="http://www.w3.org/2000/svg" data-fui-icon="true">
  <path
    d="M9.46973 11.5527C9.76253 11.2601 10.2374 11.2602 10.5303 11.5527L13.4473 14.4697C13.7399 14.7626 13.7399 15.2374 13.4473 15.5303C13.1544 15.8231 12.6796 15.823 12.3867 15.5303L10.75 13.8936V18.4375C10.75 18.8516 10.414 19.1873 10 19.1875C9.58594 19.1873 9.25 18.8516 9.25 18.4375V13.8945L7.61426 15.5303C7.32148 15.8231 6.84663 15.8228 6.55371 15.5303C6.26082 15.2374 6.26082 14.7626 6.55371 14.4697L9.46973 11.5527ZM16.875 9.25C17.2892 9.25 17.625 9.58579 17.625 10C17.625 10.4142 17.2892 10.75 16.875 10.75H3.125C2.71079 10.75 2.375 10.4142 2.375 10C2.375 9.58579 2.71079 9.25 3.125 9.25H16.875ZM10 0.8125C10.4141 0.812676 10.75 1.14839 10.75 1.5625V6.10547L12.3857 4.46973C12.6785 4.17695 13.1534 4.17718 13.4463 4.46973C13.7392 4.76262 13.7392 5.23738 13.4463 5.53027L10.5303 8.44727C10.2375 8.73987 9.76258 8.73977 9.46973 8.44727L6.55273 5.53027C6.26009 5.23743 6.26009 4.76257 6.55273 4.46973C6.84557 4.17689 7.32037 4.17702 7.61328 4.46973L9.25 6.10645V1.5625C9.25 1.14841 9.58595 0.812698 10 0.8125Z"
    fill="currentColor"
  />
</svg>

<svg xmlns="http://www.w3.org/2000/svg" width="20" height="20" fill="none" data-fui-icon="true" viewBox="0 0 20 20"><path fill="currentColor" d="M9.47 11.553a.75.75 0 0 1 1.06 0l2.917 2.917a.75.75 0 0 1-1.06 1.06l-1.637-1.636v4.544a.75.75 0 0 1-1.5 0v-4.543L7.614 15.53a.75.75 0 0 1-1.06-1.06zm7.405-2.303a.75.75 0 0 1 0 1.5H3.125a.75.75 0 0 1 0-1.5zM10 .813a.75.75 0 0 1 .75.75v4.542l1.636-1.635a.75.75 0 0 1 1.06 1.06L10.53 8.447a.75.75 0 0 1-1.06 0L6.553 5.53a.75.75 0 0 1 1.06-1.06L9.25 6.106V1.563a.75.75 0 0 1 .75-.75"/></svg>
